!!!COM: des Prez, Josquin
!!!CDT: ~1450-1521/08/27
!!!COA: Ockeghem, Johannes
!!!OPR: Missa Gaudeamus
!!!ONM: 2
!!!OTL: Gloria
!!!AGN: Mass; Gloria
!!!SCT: NJE 4.2
!!!SCA: New Josquin Edition 4.2
!!!voices: 4
!!!voices-OPR: 4
**kern	**text	**kern	**text	**kern	**text	**kern	**text
*staff4	*	*staff3	*	*staff2	*	*staff1	*
*Ivox	*	*Ivox	*	*Ivox	*	*Ivox	*
*I"Bassus	*	*I"Tenor	*	*I"Altus	*	*I"Superius	*
*I'B	*	*I'T	*	*I'A	*	*I'S	*
*>[A,B]	*	*>[A,B]	*	*>[A,B]	*	*>[A,B]	*
*>Gloria[A]	*	*>Gloria[A]	*	*>Gloria[A]	*	*>Gloria[A]	*
*>QuiTollis[B]	*	*>QuiTollis[B]	*	*>QuiTollis[B]	*	*>QuiTollis[B]	*
*clefF4	*	*clefGv2	*	*clefGv2	*	*clefG2	*
*k[]	*	*k[]	*	*k[]	*	*k[]	*
*>A	*	*>A	*	*>A	*	*>A	*
*M3/1	*	*M3/1	*	*M3/1	*	*M3/1	*
*met(O)	*	*met(O)	*	*met(O)	*	*met(O)	*
=1-	=1-	=1-	=1	=1-	=1	=1-	=1
!!section: Et in terra pax
!!!OMD: Et in terra pax
0.r	.	0.r	.	1G	Et	0.r	.
.	.	.	.	2A/	in	.	.
.	.	.	.	2.A/	ter-	.	.
.	.	.	.	4B\	.	.	.
.	.	.	.	4c\	.	.	.
.	.	.	.	4d\	.	.	.
=2	=2	=2	=2	=2	=2	=2	=2
0.r	.	0.r	.	1e	.	1g	Et
.	.	.	.	0f	-ra	2a/	in
.	.	.	.	.	.	2.a/	ter-
.	.	.	.	.	.	4b\	.
.	.	.	.	.	.	4cc\	.
.	.	.	.	.	.	4dd\	.
=3	=3	=3	=3	=3	=3	=3	=3
0.r	.	0.r	.	2e\	pax	1ee	.
.	.	.	.	1a	ho-	.	.
.	.	.	.	.	.	0ff	-ra
.	.	.	.	1d	.	.	.
.	.	.	.	[2a\	-mi-	.	.
=4	=4	=4	=4	=4	=4	=4	=4
0.r	.	0.r	.	4a\]	.	1ee	pax
.	.	.	.	4g\	.	.	.
.	.	.	.	2e\	.	.	.
.	.	.	.	2f\	.	2dd\	ho-
.	.	.	.	1g	.	2ee\	-mi-
.	.	.	.	.	.	4dd\	.
.	.	.	.	.	.	2ee\	.
.	.	.	.	2c\	.	.	.
.	.	.	.	.	.	8dd\L	-ni-
.	.	.	.	.	.	8cc\J	.
=5	=5	=5	=5	=5	=5	=5	=5
0.r	.	0.r	.	2d\	.	2b\	-bus,
.	.	.	.	1e	.	2cc\	.
.	.	.	.	.	.	2b\	ho-
.	.	.	.	2A/	-ni-	2cc\	-mi-
.	.	.	.	[1e	-bus,	4b\	.
.	.	.	.	.	.	2cc\	.
.	.	.	.	.	.	8b/L	-ni-
.	.	.	.	.	.	8a/J	.
=6	=6	=6	=6	=6	=6	=6	=6
0.r	.	0.r	.	2e\]	.	2g/	-bus,
.	.	.	.	2d\	bo-	2dd\	bo-
.	.	.	.	1a	.	2cc\	-ne
.	.	.	.	.	.	2.ee\	vo-
.	.	.	.	2g\	-ne	.	.
.	.	.	.	.	.	4dd\	.
.	.	.	.	[2a\	vo-	[2cc\	.
=7	=7	=7	=7	=7	=7	=7	=7
0.r	.	0.r	.	4a\]	.	4cc\]	.
.	.	.	.	4f\	.	4a/	.
.	.	.	.	2g\	-lun-	2b\	-lun-
.	.	.	.	1a	-ta-	2cc\	-ta-
.	.	.	.	.	.	2f/	.
.	.	.	.	2g\	.	2e/	.
.	.	.	.	[2e\	.	[2g/	.
=8	=8	=8	=8	=8	=8	=8	=8
1r	.	0.r	.	2e\]	.	4g/]	.
.	.	.	.	.	.	4f/	.
.	.	.	.	2g\	.	2.e/	.
1r	.	.	.	2.f\	.	.	.
.	.	.	.	.	.	4c/	.
.	.	.	.	.	.	2d/	.
.	.	.	.	8e\L	.	.	.
.	.	.	.	8d\J	.	.	.
1C	Lau-	.	.	2c\	-tis.	2e/	-tis.
.	.	.	.	2g\	Lau-	2ee\	Lau-
=9	=9	=9	=9	=9	=9	=9	=9
2D\	.	0.r	.	2f\	.	2dd\	.
2.D\	-da-	.	.	2.a\	-da-	2.ff\	-da-
4E\	.	.	.	4g\	.	4ee\	.
4F\	.	.	.	2f\	.	1dd	.
4G\	.	.	.	.	.	.	.
1A	.	.	.	1e	-mus	.	.
.	.	.	.	.	.	2cc#i\	-mus
=10	=10	=10	=10	=10	=10	=10	=10
!	!	!LO:TX:Z=26:X=-40:t=T originally notated once with a repeat 	!	!	!	!	!
!	!	!LO:TX:Z=6:X=-40:t=    sign indicating eleven total statements.	!	!	!	!	!
1.B-i	.	1r	.	1d	te.	1dd	te.
.	.	1r	.	1r	.	1r	.
2A\	.	.	.	.	.	.	.
1B-i	-mus	1G	Be-	1d	Be-	1r	.
=11	=11	=11	=11	=11	=11	=11	=11
1A	te.	2A/	-ne-	0a	-ne-	1cc	Be-
.	.	2.A/	-di-	.	.	.	.
1r	.	.	.	.	.	1cc	-ne-
.	.	4B\	.	.	.	.	.
.	.	4c\	.	.	.	.	.
.	.	4d\	.	.	.	.	.
1A	A-	1e	.	1a	-di-	1cc	-di-
=12	=12	=12	=12	=12	=12	=12	=12
1.D	-do-	1.f	-ci-	4a\	-ci-	2dd\	-ci-
.	.	.	.	4g\	.	.	.
.	.	.	.	4f\	.	2a/	-mus
.	.	.	.	4e\	.	.	.
.	.	.	.	2d\	.	2b\	te.
1A	-ra-	2e\	.	2.e\	.	1cc	A-
.	.	1f	-mus	.	.	.	.
.	.	.	.	4c\	.	.	.
2B\	.	.	.	2d\	-mus	4b\	-do-
.	.	.	.	.	.	4a/	.
=13	=13	=13	=13	=13	=13	=13	=13
1.c	.	1e	te.	2e\	te.	2g/	-ra-
.	.	.	.	2A/	A-	2a/	.
.	.	1r	.	2e\	.	2g/	.
2A\	-mus	.	.	2f\	-do-	2a/	-mus
1B	te.	1G	Glo-	4g\	-ra-	1d	te.
.	.	.	.	4f\	.	.	.
.	.	.	.	4e\	-mus	.	.
.	.	.	.	4d\	.	.	.
=14	=14	=14	=14	=14	=14	=14	=14
2A\	Glo-	2A/	-ri-	2c\	te.	2r	.
1c	-ri-	2.A/	-fi-	1e	Glo-	1a	Glo-
.	.	4B\	.	.	.	.	.
2F\	-fi-	4c\	.	2A/	-ri-	2a/	-ri-
.	.	4d\	.	.	.	.	.
2G\	-ca-	1e	.	2B\	-fi-	4g/	-fi-
.	.	.	.	.	.	4f/	.
2A\	-mus	.	.	2c\	.	2e/	.
=15	=15	=15	=15	=15	=15	=15	=15
1D	te.	1.f	-ca-	1.d	-ca-	2d/	-ca-
.	.	.	.	.	.	2.a/	.
1r	.	.	.	.	.	.	.
.	.	.	.	.	.	4b\	.
.	.	2e\	.	2A/	.	2cc\	.
1D	Gra-	1f	-mus	1d	-mus	2dd\	-mus
.	.	.	.	.	.	2a/	te.
=16	=16	=16	=16	=16	=16	=16	=16
1A	.	1e	te.	2c\	te.	2r	.
.	.	.	.	2A/	Gra-	2cc\	Gra-
2G\	-ti-	1r	.	2B\	-ti-	1dd	-ti-
2F\	.	.	.	1d	-as	.	.
1E	-as	1G	Gra-	.	.	1ee	-as
.	.	.	.	2c#i\	.	.	.
=17	=17	=17	=17	=17	=17	=17	=17
1.D	a-	2A/	-ti-	2.d\	a-	2.ff\	a-
.	.	2.A/	-as	.	.	.	.
.	.	.	.	4c\	.	8ee\L	.
.	.	.	.	.	.	8dd\J	.
.	.	.	.	2d\	.	2ff\	.
.	.	4B\	.	.	.	.	.
2.A\	.	4c\	.	2e\	-gi-	2.ee\	-gi-
.	.	4d\	.	.	.	.	.
.	.	1e	.	1A	-mus	.	.
4B\	.	.	.	.	.	8dd\L	.
.	.	.	.	.	.	8cc\J	.
2c\	-gi-	.	.	.	.	2ee\	.
=18	=18	=18	=18	=18	=18	=18	=18
1d	-mus	1.f	a-	2r	.	2.dd\	-mus
.	.	.	.	2d\	ti-	.	.
.	.	.	.	.	.	8cc\L	.
.	.	.	.	.	.	8bni\J	.
1r	.	.	.	2B-\	.	2dd\	.
.	.	2e\	.	2c\	.	2cc\	ti-
1D	prop-	1f	-gi-	1d	-bi,	4b-i\	.
.	.	.	.	.	.	2a/	.
.	.	.	.	.	.	8g/L	.
.	.	.	.	.	.	8f/J	.
=19	=19	=19	=19	=19	=19	=19	=19
2E\	.	1e	-mus	2Bni\	prop-	1.g	-bi,
2C/	.	.	.	2c\	.	.	.
2G\	.	1r	.	2B\	.	.	.
2A\	.	.	.	2c\	.	2c/	prop-
1B	-ter	1G	prop-	2G/	-ter	1d	.
.	.	.	.	2g\	ma-	.	.
=20	=20	=20	=20	=20	=20	=20	=20
2.c\	ma-	2A/	-ter	2f\	.	1c	-ter
.	.	2.A/	ma-	2.e\	.	.	.
4B\	.	.	.	.	.	.	.
2c\	.	.	.	.	.	1r	.
.	.	4B\	.	4d\	.	.	.
2A\	.	4c\	.	1c	.	.	.
.	.	4d\	.	.	.	.	.
1G	.	1e	.	.	.	1g	ma-
.	.	.	.	2B\	.	.	.
=21	=21	=21	=21	=21	=21	=21	=21
1F	-gnam	1.f	.	2c\	-gnam	2.a/	-gnam
.	.	.	.	1d	glo-	.	.
.	.	.	.	.	.	4g/	.
1r	.	.	.	.	.	4a/	.
.	.	.	.	.	.	4b\	.
.	.	2e\	.	2c\	-ri-	2cc\	.
1D	glo-	1f	.	1d	-am	4b-i\	glo-
.	.	.	.	.	.	2a/	.
.	.	.	.	.	.	8g/L	-ri-
.	.	.	.	.	.	8f/J	.
=22	=22	=22	=22	=22	=22	=22	=22
2E\	-ri-	1e	-gnam	2B\	tu-	2.g/	-am
2C/	.	.	.	2c\	.	.	.
.	.	.	.	.	.	4f/	.
2G\	.	1r	.	2B\	.	4e/	.
.	.	.	.	.	.	4d/	.
2A\	.	.	.	2c\	.	2c/	.
1B	-am	1G	glo-	2G/	-am,	1d	tu-
.	.	.	.	[2g\	tu-	.	.
=23	=23	=23	=23	=23	=23	=23	=23
2.c\	tu-	2A/	-ri-	4g\]	.	1c	-am,
.	.	.	.	4f\	.	.	.
.	.	2.A/	-am	4e\	.	.	.
4B\	.	.	.	4d\	.	.	.
4A\	.	.	.	4c\	.	1r	.
4G\	.	4B\	.	4B\	.	.	.
2F\	.	4c\	.	2A/	.	.	.
.	.	4d\	.	.	.	.	.
1E	.	1e	.	1G	-am,	1g	do-
=24	=24	=24	=24	=24	=24	=24	=24
1D	-am,	1.f	tu-	2d\	do-	2a/	-mi-
.	.	.	.	4A/	-mi-	1a	-ne
.	.	.	.	2.d\	-ne	.	.
1r	.	.	.	.	.	.	.
.	.	2e\	.	4c\	de-	2a/	de-
.	.	.	.	2.A/	-us	.	.
1D	do-	1f	.	.	.	2a/	-us
.	.	.	.	2d\	rex	2a/	rex
=25	=25	=25	=25	=25	=25	=25	=25
2E\	-mi-	1e	-am,	4B\	ce-	2g/	ce-
.	.	.	.	2e\	-le-	.	.
2C/	-ne	.	.	.	.	2.cc\	-le-
.	.	.	.	2c\	.	.	.
1F	de-	1r	.	.	.	.	.
.	.	.	.	4d\	.	4b\	.
.	.	.	.	4A/	.	1a	.
.	.	.	.	2d\	.	.	.
1E	-us	1G	do-	.	.	.	.
.	.	.	.	4B\	.	.	.
.	.	.	.	2c\	.	2g/	.
=26	=26	=26	=26	=26	=26	=26	=26
2D\	rex	2A/	-mi-	2d\	.	2f/	.
2C/	ce-	2.A/	-ne	2e\	.	2.cc\	.
1F	-le-	.	.	1A	.	.	.
.	.	4B\	.	.	.	4b\	.
.	.	4c\	.	.	.	1a	.
.	.	4d\	.	.	.	.	.
1E	.	1e	.	1B	-stis,	.	.
.	.	.	.	.	.	2g#i/	.
=27	=27	=27	=27	=27	=27	=27	=27
1D	-stis,	1.f	de-	2r	.	0.a	-stis,
.	.	.	.	1d	de-	.	.
1r	.	.	.	.	.	.	.
.	.	2e\	.	2c\	-us	.	.
1D	de-	1f	.	4d\	pa-	.	.
.	.	.	.	4c\	.	.	.
.	.	.	.	4A/	.	.	.
.	.	.	.	4d\	.	.	.
=28	=28	=28	=28	=28	=28	=28	=28
2E\	-us	1e	-us	2G/	.	0.r	.
2C/	.	.	.	1c	.	.	.
1F	pa-	1r	.	.	.	.	.
.	.	.	.	2d\	.	.	.
1E	-ter	1G	do-	4e\	.	.	.
.	.	.	.	4f\	.	.	.
.	.	.	.	2g\	.	.	.
=29	=29	=29	=29	=29	=29	=29	=29
2D\	om-	2A/	-mi-	2f\	-ter	0.r	.
2C/	.	2.A/	-ne	1e	om-	.	.
1F	-ni-	.	.	.	.	.	.
.	.	4B\	.	.	.	.	.
.	.	4c\	.	2A/	.	.	.
.	.	4d\	.	.	.	.	.
1E	-po-	1e	.	2B\	-ni-	.	.
.	.	.	.	2c#i\	-po-	.	.
=30	=30	=30	=30	=30	=30	=30	=30
1D	-tens.	1.f	fi-	1d	-tens.	2r	.
.	.	.	.	.	.	1a	do-
1r	.	.	.	1r	.	.	.
.	.	2e\	.	.	.	2g/	-mi-
1D	do-	1f	.	2r	.	2.a/	-ne
.	.	.	.	2d\	do-	.	.
.	.	.	.	.	.	4b\	.
=31	=31	=31	=31	=31	=31	=31	=31
2A\	-mi-	1e	-li	2c\	-mi-	4cc\	.
.	.	.	.	.	.	4a/	.
2G\	-ne	.	.	2B\	-ne	2b\	.
1A	fi-	1r	.	1c	fi-	2.e/	fi-
.	.	.	.	.	.	4f/	.
1E	-li	1G	u-	1B	-li	4g/	.
.	.	.	.	.	.	4f/	.
.	.	.	.	.	.	4e/	.
.	.	.	.	.	.	4d/	.
=32	=32	=32	=32	=32	=32	=32	=32
2.F\	u-	2A/	-ni-	2r	.	2c/	-li
.	.	2.A/	-ge-	1c	u-	1f	u-
4F\	-ni-	.	.	.	.	.	.
2F\	-ge-	.	.	.	.	.	.
.	.	4B\	.	.	.	.	.
2F\	-ni-	4c\	.	2A/	-ni-	2f/	-ni-
.	.	4d\	.	.	.	.	.
1E	-te,	1e	.	2B\	-ge-	2g/	-ge-
.	.	.	.	2c\	-ni-	2g/	-ni-
=33	=33	=33	=33	=33	=33	=33	=33
2r	.	1.f	.	2d\	-te,	2a/	-te,
2D\	Je-	.	.	2A/	Je-	1dd	Je-
2BB-/	-su	.	.	2B-\	-su	.	.
2C/	.	2e\	.	2G/	.	2cc\	-su
1D	Chri-	1f	-ni-	2.F/	Chri-	2.a/	Chri-
.	.	.	.	4G/	.	4b\	.
=34	=34	=34	=34	=34	=34	=34	=34
0AA	.	1e	-te,	1A	.	1.cc	.
.	.	1r	.	1E	-ste,	.	.
.	.	.	.	.	.	4b\	.
.	.	.	.	.	.	4a/	.
1E	-ste,	1G	do-	2r	.	1b	-ste,
.	.	.	.	[2e\	do-	.	.
=35	=35	=35	=35	=35	=35	=35	=35
1AA	Chri-	2A/	-mi-	2e\]	.	2r	.
.	.	2.A/	-ne	2e\	-mi-	1cc	do-
0A	-ste,	.	.	2.e\	-ne	.	.
.	.	4B\	.	.	.	.	.
.	.	4c\	.	.	.	2cc\	-mi-
.	.	4d\	.	4d\	.	.	.
.	.	1e	.	4c\	.	2cc\	-ne
.	.	.	.	4B\	.	.	.
.	.	.	.	2A/	.	2cc\	de-
=36	=36	=36	=36	=36	=36	=36	=36
2r	.	1.f	de-	2B\	de-	2.dd\	.
1D	do-	.	.	2.A/	.	.	.
.	.	.	.	.	.	4ee\	.
.	.	.	.	.	.	4ff\	.
.	.	.	.	4B\	.	4dd\	.
2C/	-mi-	2e\	.	2c\	.	2ee\	.
2D\	-ne	1f	.	2F/	.	2.a/	.
[2A\	de-	.	.	[2c\	.	.	.
.	.	.	.	.	.	4b\	.
=37	=37	=37	=37	=37	=37	=37	=37
2A\]	.	1e	-us	2c\]	.	4cc\	.
.	.	.	.	.	.	4a/	.
2G\	.	.	.	2B\	.	2b\	.
2A\	-us	1r	.	2c\	.	2e/	-us
2c\	a-	.	.	2A/	.	2a/	a-
1B	-gnus	1G	a-	1E	-us	4g/	-gnus
.	.	.	.	.	.	4f/	.
.	.	.	.	.	.	4e/	.
.	.	.	.	.	.	4d/	.
=38	=38	=38	=38	=38	=38	=38	=38
2.A\	de-	2A/	.	1e	a-	2c/	.
.	.	2.A/	-gnus	.	.	2.cc\	de-
4B\	.	.	.	.	.	.	.
1c	.	.	.	2.A/	-gnus	.	.
.	.	4B\	.	.	.	4b\	.
.	.	4c\	.	.	.	2a/	.
.	.	4d\	.	4B\	.	.	.
1C	-i,	1e	.	1c	.	1g	.
=39	=39	=39	=39	=39	=39	=39	=39
2r	.	1.f	de-	2.F/	de-	1f	-i,
1D	de-	.	.	.	.	.	.
.	.	.	.	4G/	.	.	.
.	.	.	.	4A/	.	1r	.
.	.	.	.	4B\	.	.	.
2C/	.	2e\	.	2c\	.	.	.
1D	.	1f	.	2A/	.	2r	.
.	.	.	.	2d\	.	2a/	fi-
=40	=40	=40	=40	=40	=40	=40	=40
2E\	.	1e	-i,	2B\	.	2g/	.
2.C/	.	.	.	2.e\	.	2.cc\	.
.	.	1r	.	.	.	.	.
8D\L	.	.	.	4d\	.	4b\	.
8E\J	.	.	.	.	.	.	.
2F\	.	.	.	4c\	.	2a/	.
.	.	.	.	8B/L	.	.	.
.	.	.	.	8A/J	.	.	.
1E	-i,	1G	fi-	2B\	-i,	4g/	.
.	.	.	.	.	.	4f/	.
.	.	.	.	[2e\	fi-	4e/	.
.	.	.	.	.	.	4d/	.
=41	=41	=41	=41	=41	=41	=41	=41
2.AA/	fi-	2A/	-li-	2e\]	.	4c/	.
.	.	.	.	.	.	2cc\	.
.	.	2.A/	-us	2A/	.	.	.
4BB/	.	.	.	.	.	4b\	.
4C/	.	.	.	2.e\	.	2a/	.
4D\	.	4B\	.	.	.	.	.
4E\	.	4c\	.	.	.	2.g/	.
4F\	.	4d\	.	4d\	.	.	.
2G\	.	1e	.	2B\	.	.	.
.	.	.	.	.	.	4f/	.
2A\	-li-	.	.	2c\	-li-	2e/	-li-
=42	=42	=42	=42	=42	=42	=42	=42
2D\	-us	1.f	pa-	2d\	-us	2d/	-us
2F\	pa-	.	.	2A/	pa-	2.a/	pa-
2D\	.	.	.	2d\	.	.	.
.	.	.	.	.	.	4b\	.
2A\	.	2e\	.	2c\	.	2cc\	.
2F\	.	1f	.	4d\	.	2.a/	.
.	.	.	.	4A/	.	.	.
2D\	.	.	.	2d\	.	.	.
.	.	.	.	.	.	4b\	.
=43	=43	=43	=43	=43	=43	=43	=43
2.A\	.	[0.el	-tris.	1c	-tris,	4cc\	.
.	.	.	.	.	.	4dd\	.
.	.	.	.	.	.	2.cc\	.
4B\	.	.	.	.	.	.	.
4c\	.	.	.	1A	pa-	.	.
4d\	.	.	.	.	.	4b\	.
2.c\	.	.	.	.	.	2a/	.
.	.	.	.	1c	.	2g/	.
4B\	.	.	.	.	.	.	.
2A\	.	.	.	.	.	2a/	.
=44	=44	=44	=44	=44	=44	=44	=44
2G\	.	0.e_	.	2B\	.	2b\	.
2.A\	.	.	.	2A/	.	2cc\	.
.	.	.	.	2.c\	.	2a/	.
4G\	.	.	.	.	.	.	.
2A\	.	.	.	.	.	2.cc\	.
.	.	.	.	8B/L	.	.	.
.	.	.	.	8A/J	.	.	.
2G\	.	.	.	2B\	.	.	.
.	.	.	.	.	.	4b\	.
2A\	.	.	.	2c\	.	2a/	.
=45	=45	=45	=45	=45	=45	=45	=45
0.El	-tris.	0.e]	.	0.Bl	-tris.	0.gl	-tris.
!!LO:LB:i:g=z	.		.		.		.
=46||	=46||	=46||	=46||	=46||	=46||	=46||	=46||
*>B	*	*>B	*	*>B	*	*>B	*
!!sectoin: Qui tollis
!!!OMD: Qui tollis
*M2/1	*	*M2/1	*	*M2/1	*	*M2/1	*
*met(C|)	*	*met(C|)	*	*met(C|)	*	*met(C|)	*
0A	Qui	[0e	Qui	0r	.	0r	.
=47	=47	=47	=47	=47	=47	=47	=47
1G	tol-	0e]	.	0r	.	0r	.
[1A	.	.	.	.	.	.	.
=48	=48	=48	=48	=48	=48	=48	=48
1A]	.	[0e	tol-	0r	.	0r	.
1E	.	.	.	.	.	.	.
=49	=49	=49	=49	=49	=49	=49	=49
1.G	.	1e]	.	0r	.	0r	.
.	.	[1d	.	.	.	.	.
2F\	.	.	.	.	.	.	.
=50	=50	=50	=50	=50	=50	=50	=50
2D\	.	0d]	.	0r	.	0r	.
1F	.	.	.	.	.	.	.
2G\	.	.	.	.	.	.	.
=51	=51	=51	=51	=51	=51	=51	=51
1E	-lis	1c	-lis	0r	.	0r	.
1D	.	[1d	pec-	.	.	.	.
=52	=52	=52	=52	=52	=52	=52	=52
[0G	pec-	0d]	.	0r	.	0r	.
=53	=53	=53	=53	=53	=53	=53	=53
1G]	.	1.g	-ca-	0r	.	0r	.
[1c	-ca-	.	.	.	.	.	.
.	.	2f\	.	.	.	.	.
=54	=54	=54	=54	=54	=54	=54	=54
2c\]	.	1e	.	0r	.	0r	.
2A\	.	.	.	.	.	.	.
1B	.	1d	.	.	.	.	.
=55	=55	=55	=55	=55	=55	=55	=55
1c	-ta	1e	-ta	0r	.	0r	.
1d	mun-	[1f	mun-	.	.	.	.
=56	=56	=56	=56	=56	=56	=56	=56
1D	.	1f]	.	0r	.	0r	.
[1A	.	1e	.	.	.	.	.
=57	=57	=57	=57	=57	=57	=57	=57
2A\]	.	1f	.	0r	.	0r	.
2F\	.	.	.	.	.	.	.
2G\	.	1e	.	.	.	.	.
[2A\	.	.	.	.	.	.	.
=58	=58	=58	=58	=58	=58	=58	=58
2A\]	.	0f	.	0r	.	0r	.
2D\	.	.	.	.	.	.	.
1d	.	.	.	.	.	.	.
=59	=59	=59	=59	=59	=59	=59	=59
2.c\	.	[0e	-di,	0r	.	1r	.
4B\	.	.	.	.	.	.	.
4c\	.	.	.	.	.	[1g	Qui
4d\	.	.	.	.	.	.	.
[2c\	.	.	.	.	.	.	.
=60	=60	=60	=60	=60	=60	=60	=60
2c\]	.	0e_	.	0r	.	2g/]	.
4B\	.	.	.	.	.	2a/	.
4A\	.	.	.	.	.	.	.
2G\	.	.	.	.	.	2b\	tol-
[2A\	.	.	.	.	.	[2cc\	.
=61	=61	=61	=61	=61	=61	=61	=61
1.A]	.	0e]	.	0r	.	2cc\]	.
.	.	.	.	.	.	4b\	.
.	.	.	.	.	.	4a/	.
.	.	.	.	.	.	1b	.
2G#i\	.	.	.	.	.	.	.
=62	=62	=62	=62	=62	=62	=62	=62
0A	-di,	0r	.	1r	.	1e	-lis
.	.	.	.	[1c	Qui	2r	.
.	.	.	.	.	.	[2a/	pec-
=63	=63	=63	=63	=63	=63	=63	=63
0r	.	0r	.	2c\]	.	2a/]	.
.	.	.	.	2d\	.	4g/	.
.	.	.	.	.	.	4f/	.
.	.	.	.	2e\	.	2g/	-ca-
.	.	.	.	[2f\	tol-	2a/	.
=64	=64	=64	=64	=64	=64	=64	=64
0r	.	0r	.	2f\]	.	2d/	-ta
.	.	.	.	4e\	.	1dd	mun-
.	.	.	.	4d\	.	.	.
.	.	.	.	1e	.	.	.
.	.	.	.	.	.	4cc\	.
.	.	.	.	.	.	4b\	.
=65	=65	=65	=65	=65	=65	=65	=65
0r	.	0r	.	1A	-lis	1cc	-di,
.	.	.	.	[1a	pec-	2r	.
.	.	.	.	.	.	[2f/	mun-
=66	=66	=66	=66	=66	=66	=66	=66
0r	.	0r	.	2a\]	.	2f/]	.
.	.	.	.	4g\	.	4e/	.
.	.	.	.	4f\	.	4d/	.
.	.	.	.	4g\	-ca-	1e	-di,
.	.	.	.	4f\	.	.	.
.	.	.	.	4e\	.	.	.
.	.	.	.	4d\	.	.	.
=67	=67	=67	=67	=67	=67	=67	=67
0r	.	0r	.	1c	.	2r	.
.	.	.	.	.	.	1cc	pec-
.	.	.	.	[1d	.	.	.
.	.	.	.	.	.	4b\	.
.	.	.	.	.	.	4a/	.
=68	=68	=68	=68	=68	=68	=68	=68
0r	.	0r	.	2d\]	.	2b\	-ca-
.	.	.	.	2c\	-ta	1cc	-ta
.	.	.	.	1d	mun-	.	.
.	.	.	.	.	.	[2f/	mun-
=69	=69	=69	=69	=69	=69	=69	=69
1r	.	0r	.	1A	.	2f/]	.
.	.	.	.	.	.	4e/	.
.	.	.	.	.	.	4d/	.
1A	mi-	.	.	1c	.	1e	-di,
=70	=70	=70	=70	=70	=70	=70	=70
1c	.	[0e	no-	1A	-di,	1r	.
1A	-se-	.	.	[1c	mi-	2r	.
.	.	.	.	.	.	2c/	mi-
=71	=71	=71	=71	=71	=71	=71	=71
1.c	-re-	0e_	.	2c\]	.	2.e/	-se-
.	.	.	.	4B\	-se-	.	.
.	.	.	.	4A/	.	4f/	.
.	.	.	.	2.e\	-re-	2.g/	-re-
4B\	.	.	.	.	.	.	.
4A\	.	.	.	4f\	.	4a/	.
=72	=72	=72	=72	=72	=72	=72	=72
2G\	-re	0e_	.	2g\	.	2b\	-re
2.A\	no-	.	.	2e\	.	2.cc\	no-
.	.	.	.	[1a	-re	.	.
4G\	.	.	.	.	.	4b\	.
4A\	.	.	.	.	.	[2ee\	.
4B\	.	.	.	.	.	.	.
=73	=73	=73	=73	=73	=73	=73	=73
2c\	.	0e]	.	1a]	.	2ee\]	.
2d\	.	.	.	.	.	1dd	.
1A	.	.	.	1a	no-	.	.
.	.	.	.	.	.	2cc#i\	.
=74	=74	=74	=74	=74	=74	=74	=74
0D	-bis,	[0d	.	0f	-bis,	0dd	-bis,
=75	=75	=75	=75	=75	=75	=75	=75
2r	.	0d_	.	2r	.	2r	.
2D\	qui	.	.	2f\	qui	2a/	qui
1G	tol-	.	.	1g	tol-	1b-i	tol-
=76	=76	=76	=76	=76	=76	=76	=76
2D\	-lis	0d_	.	2f\	-lis	2a/	-lis
2G\	pec-	.	.	2g\	pec-	2b-i\	pec-
2D\	.	.	.	2f\	.	2a/	.
[2G\	-ca-	.	.	[2g\	-ca-	[2b-i\	-ca-
=77	=77	=77	=77	=77	=77	=77	=77
2G\]	.	0d]	.	2g\]	.	2b-\]	.
2A\	.	.	.	2f\	.	1a	-ta
1B-i	-ta	.	.	1d	.	.	.
.	.	.	.	.	.	2g/	mun-
=78	=78	=78	=78	=78	=78	=78	=78
1.A	mun-	[0c	.	1e	-ta	0a	-di,
.	.	.	.	[1a	mun-	.	.
4G\	.	.	.	.	.	.	.
4F\	.	.	.	.	.	.	.
=79	=79	=79	=79	=79	=79	=79	=79
2A\	.	0c_	.	1a]	.	1r	.
2Bni\	.	.	.	.	.	.	.
1c	-di,	.	.	1g	-di,	[1ee	su-
=80	=80	=80	=80	=80	=80	=80	=80
1r	.	0c_	.	1r	.	1ee]	.
[1C	su-	.	.	[1g	su-	1ee	-sci-
=81	=81	=81	=81	=81	=81	=81	=81
1C]	.	0c_	.	1g]	.	0ee	-pe
1C	-sci-	.	.	1g	-sci-	.	.
=82	=82	=82	=82	=82	=82	=82	=82
0F	-pe	0c_	.	0a	-pe	1ff	de-
.	.	.	.	.	.	1ff	-pre-
=83	=83	=83	=83	=83	=83	=83	=83
1C	de-	0c]	.	1g	de-	1ee	-ca-
1C	-pre-	.	.	1g	-pre-	1ee	-ti-
=84	=84	=84	=84	=84	=84	=84	=84
1G	-ca-	[0d	.	1g	-ca-	1.dd	-o-
1G	-ti-	.	.	1g	-ti-	.	.
.	.	.	.	.	.	2cc\	.
=85	=85	=85	=85	=85	=85	=85	=85
0G	-o-	0d_	.	0g	-o-	2b-i\	.
.	.	.	.	.	.	2a/	.
.	.	.	.	.	.	1b-i	.
=86	=86	=86	=86	=86	=86	=86	=86
[0D	.	0d_	.	1.f	.	1a	-nem
.	.	.	.	.	.	[1ff	no-
.	.	.	.	4e\	.	.	.
.	.	.	.	4d\	.	.	.
=87	=87	=87	=87	=87	=87	=87	=87
0D]	.	0d]	.	2f\	-nem	2ff\]	.
.	.	.	.	2g\	.	4ee\	.
.	.	.	.	.	.	4dd\	.
.	.	.	.	[1a	no-	1ff	.
=88	=88	=88	=88	=88	=88	=88	=88
[0A	-nem	[0c	-stram.	2a\]	.	1ee	-stram.
.	.	.	.	4g\	.	.	.
.	.	.	.	4f\	.	.	.
.	.	.	.	1e	-stram.	2r	.
.	.	.	.	.	.	[2ee\	no-
=89	=89	=89	=89	=89	=89	=89	=89
0A]	.	0c_	.	1r	.	4ee\]	.
.	.	.	.	.	.	4dd\	.
.	.	.	.	.	.	4cc\	.
.	.	.	.	.	.	4b\	.
.	.	.	.	[1A	Qui	2.cc\	.
.	.	.	.	.	.	4b\	.
=90	=90	=90	=90	=90	=90	=90	=90
1r	.	0c_	.	1A]	.	4a/	.
.	.	.	.	.	.	4g/	.
.	.	.	.	.	.	1a	.
[1AA	Qui	.	.	1A	se-	.	.
.	.	.	.	.	.	4g/	.
.	.	.	.	.	.	4f/	.
=91	=91	=91	=91	=91	=91	=91	=91
2AA/]	.	0c]	.	1A	-des	2e/	.
2BB/	.	.	.	.	.	2d/	.
1C	.	.	.	2G/	ad	1e	-stram.
.	.	.	.	[2A/	dex-	.	.
=92	=92	=92	=92	=92	=92	=92	=92
1D	se-	[0A	Qui	2A/]	.	0r	.
.	.	.	.	2F/	-te-	.	.
1AA	.	.	.	1E	-ram	.	.
=93	=93	=93	=93	=93	=93	=93	=93
1D	-des	0A]	.	1.F	pa-	0r	.
2r	.	.	.	.	.	.	.
2D\	ad	.	.	4E/	.	.	.
.	.	.	.	4D/	.	.	.
=94	=94	=94	=94	=94	=94	=94	=94
2C/	.	1A	se-	2E/	.	0r	.
2.D\	dex-	.	.	1F	.	.	.
.	.	[1d	-des	.	.	.	.
4E\	.	.	.	.	.	.	.
2F\	.	.	.	2D/	.	.	.
=95	=95	=95	=95	=95	=95	=95	=95
2G\	.	0d_	.	1B-i	.	0r	.
1D	.	.	.	.	.	.	.
.	.	.	.	2A/	.	.	.
[2G\	.	.	.	[2B-i\	.	.	.
=96	=96	=96	=96	=96	=96	=96	=96
2G\]	.	1d]	.	2B-\]	.	0r	.
2F\	-te-	.	.	2A/	.	.	.
2G\	-ram	1d	ad	2B-i\	.	.	.
[2B-i\	pa-	.	.	2G/	.	.	.
=97	=97	=97	=97	=97	=97	=97	=97
2B-\]	.	1c	dex-	1A	-tris,	0r	.
1A	.	.	.	.	.	.	.
.	.	1B	-te-	1E	pa-	.	.
2G\	.	.	.	.	.	.	.
=98	=98	=98	=98	=98	=98	=98	=98
2A\	-tris,	1A	-ram	1F	.	1a	pa-
2.D\	pa-	.	.	.	.	.	.
.	.	[1d	pa-	1D	.	2b-i\	.
4E\	.	.	.	.	.	.	.
[2F\	.	.	.	.	.	[2a/	.
=99	=99	=99	=99	=99	=99	=99	=99
2F\]	.	1d]	.	1.F	.	2a/]	.
4E\	.	.	.	.	.	4g/	.
4D\	.	.	.	.	.	4f/	.
2F\	.	1c	-tris,	.	.	2a/	.
2E\	.	.	.	2G/	.	2g/	.
=100	=100	=100	=100	=100	=100	=100	=100
1.AA	-tris,	1r	.	0A	-tris,	1e	-tris,
.	.	[1c	mi-	.	.	[1cc	mi-
[2A\	mi-	.	.	.	.	.	.
=101	=101	=101	=101	=101	=101	=101	=101
1A]	.	1c]	.	0r	.	1cc]	.
1G	-se-	1d	-se-	.	.	1b	-se-
=102	=102	=102	=102	=102	=102	=102	=102
1F	-re-	1d	-re-	0r	.	1a	-re-
2E\	-re	[1e	-re	.	.	2g/	-re
[2A\	no-	.	.	.	.	[2cc\	no-
=103	=103	=103	=103	=103	=103	=103	=103
1A]	.	2e\]	.	0r	.	2cc\]	.
.	.	2f\	.	.	.	4b\	.
.	.	.	.	.	.	4a/	.
2.G\	.	1g	.	.	.	1b	.
4F\	.	.	.	.	.	.	.
=104	=104	=104	=104	=104	=104	=104	=104
1D	-bis.	1.f	no-	1r	.	2.a/	.
.	.	.	.	.	.	4b\	.
1r	.	.	.	[1A	mi-	4cc\	.
.	.	.	.	.	.	4dd\	.
.	.	2e\	.	.	.	[2ee\	.
=105	=105	=105	=105	=105	=105	=105	=105
0r	.	2f\	.	2A/]	.	4ee\]	.
.	.	.	.	.	.	4dd\	.
.	.	2d\	.	2B\	.	1dd	.
.	.	1e	.	1A	-se-	.	.
.	.	.	.	.	.	2cc#i\	.
=106	=106	=106	=106	=106	=106	=106	=106
0r	.	[0d	-bis.	1B	-re-	2.dd\	.
.	.	.	.	.	.	4cc\	.
.	.	.	.	2G/	-re	4b\	.
.	.	.	.	.	.	4a/	.
.	.	.	.	[2d\	no-	2b\	.
=107	=107	=107	=107	=107	=107	=107	=107
0r	.	0d_	.	4d\]	.	2a/	-bis.
.	.	.	.	4c\	.	.	.
.	.	.	.	4B\	.	2.dd\	no-
.	.	.	.	4A/	.	.	.
.	.	.	.	2B\	-bis.	.	.
.	.	.	.	.	.	4cc\	.
.	.	.	.	[2d\	no-	4b\	.
.	.	.	.	.	.	4a/	.
=108	=108	=108	=108	=108	=108	=108	=108
0r	.	0d]	.	4d\]	.	2b\	.
.	.	.	.	4c\	.	.	.
.	.	.	.	4B\	.	1a	.
.	.	.	.	4A/	.	.	.
.	.	.	.	1B	.	.	.
.	.	.	.	.	.	2g#i/	.
=109	=109	=109	=109	=109	=109	=109	=109
1.F	Quo-	1.c	Quo-	1A	-bis.	1a	-bis.
.	.	.	.	[1a	Quo-	1r	.
2F\	-ni-	2c\	-ni-	.	.	.	.
=110	=110	=110	=110	=110	=110	=110	=110
1F	-am	1c	-am	2a\]	.	1.cc	Quo-
.	.	.	.	2a\	-ni-	.	.
1F	tu	1c	tu	1a	-am	.	.
.	.	.	.	.	.	2cc\	-ni-
=111	=111	=111	=111	=111	=111	=111	=111
1C	so-	1.e	so-	1g	tu	1cc	-am
1C	-lus	.	.	1g	so-	1cc	tu
.	.	2d\	.	.	.	.	.
=112	=112	=112	=112	=112	=112	=112	=112
1.G	sanc-	1d	-lus	1g	-lus	1.b	so-
.	.	[1g	sanc-	[1G	sanc-	.	.
2E\	.	.	.	.	.	2g/	.
=113	=113	=113	=113	=113	=113	=113	=113
2.E\	.	2g\]	.	2G/]	.	1g	-lus
.	.	2e\	.	4A/	.	.	.
4C/	.	.	.	4B\	.	.	.
1C	-tus,	[1e	-tus,	[1c	-tus,	2r	.
.	.	.	.	.	.	[2g/	sanc-
=114	=114	=114	=114	=114	=114	=114	=114
0r	.	2e\]	.	2c\]	.	2g/]	.
.	.	2f\	sanc-	2F/	sanc-	2a/	.
.	.	2e\	.	2G/	.	2g/	.
.	.	[2f\	.	[2A/	.	[2cc\	.
=115	=115	=115	=115	=115	=115	=115	=115
0r	.	2f\]	.	4A/]	.	4cc\]	.
.	.	.	.	4F/	.	4dd\	.
.	.	2e\	.	2G/	.	1ee	.
.	.	1f	.	2A/	.	.	.
.	.	.	.	2B\	.	2dd\	.
=116	=116	=116	=116	=116	=116	=116	=116
1r	.	0e	-tus,	0c	-tus,	1ee	-tus,
1A	tu	.	.	.	.	1cc	tu
=117	=117	=117	=117	=117	=117	=117	=117
1B-i	so-	0r	.	1r	.	1dd	so-
2A\	-lus	.	.	1f	tu	2cc\	-lus
[2B-i\	do-	.	.	.	.	[2dd\	do-
=118	=118	=118	=118	=118	=118	=118	=118
2B-\]	.	1r	.	1g	so-	2dd\]	.
2B-i\	-mi-	.	.	.	.	2dd\	-mi-
1A	-nus,	1c	tu	1a	-lus	1cc	-nus,
=119	=119	=119	=119	=119	=119	=119	=119
0r	.	1d	so-	1.a	do-	2r	.
.	.	.	.	.	.	2f/	tu
.	.	2c\	-lus	.	.	2e/	.
.	.	[2d\	do-	2a\	-mi-	[2f/	so-
=120	=120	=120	=120	=120	=120	=120	=120
1r	.	2d\]	.	0a	-nus,	2f/]	.
.	.	2d\	-mi-	.	.	4e/	.
.	.	.	.	.	.	4d/	.
1A	tu	1c	-nus,	.	.	1e	-lus
=121	=121	=121	=121	=121	=121	=121	=121
0A	so-	1r	.	0e	tu	0cc	tu
.	.	1c	tu	.	.	.	.
=122	=122	=122	=122	=122	=122	=122	=122
1.G	-lus	0d	so-	0g	so-	0b	so-
2F\	.	.	.	.	.	.	.
=123	=123	=123	=123	=123	=123	=123	=123
0D	.	1d	-lus	1.f	-lus	1a	-lus
.	.	1d	al-	.	.	1a	al-
.	.	.	.	4e\	.	.	.
.	.	.	.	4d\	.	.	.
=124	=124	=124	=124	=124	=124	=124	=124
0A	al-	1e	-tis-	2c\	.	1.cc	-tis-
.	.	.	.	2A/	al-	.	.
.	.	1f	-si-	1c	-tis-	.	.
.	.	.	.	.	.	4b\	.
.	.	.	.	.	.	4a/	.
=125	=125	=125	=125	=125	=125	=125	=125
1G	-tis-	1.g	-mus,	1d	-si-	1b	.
1E	-si-	.	.	1e	.	1g	-si-
.	.	2f\	.	.	.	.	.
=126	=126	=126	=126	=126	=126	=126	=126
1G	-mus,	1.d	.	1B	-mus,	1b	-mus,
[1D	Je-	.	.	2r	.	[1a	Je-
.	.	[2f\	Je-	[2d\	Je-	.	.
=127	=127	=127	=127	=127	=127	=127	=127
2D\]	.	1f]	.	2d\]	.	1a]	.
1.A	-su	.	.	1c	.	.	.
.	.	[1e	-su	.	.	1cc	-su
.	.	.	.	2A/	.	.	.
=128	=128	=128	=128	=128	=128	=128	=128
1.G	Chri-	2e\]	.	2B\	-su	1.b	Chri-
.	.	1.d	Chri-	1G	Chri-	.	.
[2F\	.	.	.	[2A/	.	[2a/	.
=129	=129	=129	=129	=129	=129	=129	=129
1F]	.	1.c	.	2A/]	.	1a]	.
.	.	.	.	2F/	.	.	.
2E\	.	.	.	2G/	.	2g/	.
2D\	.	[2d\	.	[2A/	.	[2f/	.
=130	=130	=130	=130	=130	=130	=130	=130
2F\	.	1d]	.	2A/]	.	2f/]	.
2G\	.	.	.	2B\	.	4e/	.
.	.	.	.	.	.	4d/	.
2E\	.	1c	-ste,	2G/	.	1e	-ste,
[2A\	-ste,	.	.	[2c\	.	.	.
=131	=131	=131	=131	=131	=131	=131	=131
2A\]	.	1r	.	2c\]	.	0r	.
2F\	Je-	.	.	2d\	.	.	.
2E\	-su	[1c	Je-	1e	.	.	.
[2A\	Chri-	.	.	.	.	.	.
=132	=132	=132	=132	=132	=132	=132	=132
2A\]	.	2c\]	.	1A	-ste,	2r	.
2D\	.	1.d	.	.	.	1a	Je-
2F\	.	.	.	1r	.	.	.
2G\	.	.	.	.	.	2b\	.
=133	=133	=133	=133	=133	=133	=133	=133
2E\	.	1.e	-su	0r	.	2g/	-su
2A\	.	.	.	.	.	2.cc\	Chri-
2c\	.	.	.	.	.	.	.
.	.	.	.	.	.	4b\	.
2d\	.	[2d\	.	.	.	[2a/	.
=134	=134	=134	=134	=134	=134	=134	=134
1B	.	1d]	.	1d	Je-	2a/]	.
.	.	.	.	.	.	2g#i/	.
2A\	-ste,	2c\	Chri-	2e\	-su	[1a	-ste.
2D\	Je-	[2d\	.	[2f\	Chri-	.	.
=135	=135	=135	=135	=135	=135	=135	=135
2F\	.	2d\]	.	2f\]	.	2a/]	.
2G\	.	2B\	.	4e\	.	2b\	Je-
.	.	.	.	4d\	.	.	.
2E\	.	1c	.	2e\	.	2g/	-su
2A\	-su	.	.	2A/	.	[2a/	Chri-
=136	=136	=136	=136	=136	=136	=136	=136
2r	.	0d	.	1B	.	4a/]	.
.	.	.	.	.	.	4g/	.
2D\	Je-	.	.	.	.	1f	.
2F\	.	.	.	2A/	-ste,	.	.
2G\	.	.	.	2B\	Je-	4e/	.
.	.	.	.	.	.	4d/	.
=137	=137	=137	=137	=137	=137	=137	=137
2E\	.	0c	-ste.	2G/	-su	1e	-ste.
1A	-su	.	.	2c\	Chri-	.	.
.	.	.	.	2A/	.	1r	.
2AA/	Chri-	.	.	[2c\	.	.	.
=138	=138	=138	=138	=138	=138	=138	=138
2C/	.	0r	.	4c\]	.	0r	.
.	.	.	.	4B\	.	.	.
2D\	.	.	.	1A	.	.	.
1BB	-ste.	.	.	.	.	.	.
.	.	.	.	2G#i/	-ste.	.	.
=139	=139	=139	=139	=139	=139	=139	=139
*M3/1	*	*M3/1	*	*M3/1	*	*M3/1	*
*met(3)	*	*met(3)	*	*met(3)	*	*met(3)	*
0AA	Cum	0c	Cum	0A	Cum	0e	Cum
1D	sanc-	1d	.	1A	sanc-	1f	sanc-
=140	=140	=140	=140	=140	=140	=140	=140
1BB	.	1d	sanc-	1B	.	1d	.
1.C	-to	1.e	.	1G	.	0g	.
.	.	.	.	1c	.	.	.
2D\	.	2f\	.	.	.	.	.
=141	=141	=141	=141	=141	=141	=141	=141
2E\	spi-	1.g	-to	0B	-to	1g	-to
2F\	.	.	.	.	.	.	.
1.G	.	.	.	.	.	1.b	spi-
.	.	2f\	.	.	.	.	.
.	.	1d	.	[1d	spi-	.	.
2F\	.	.	.	.	.	2cc\	.
=142	=142	=142	=142	=142	=142	=142	=142
1D	.	1f	spi-	1d]	.	0dd	.
0A	.	0e	-ri-	0A	.	.	.
.	.	.	.	.	.	1cc	.
=143	=143	=143	=143	=143	=143	=143	=143
1.D	.	0d	-tu,	1f	.	1dd	.
.	.	.	.	1f	-ri-	1.a	-ri-
2E\	.	.	.	.	.	.	.
2F\	-ri-	1r	.	1f	-tu,	.	.
2G\	.	.	.	.	.	2b\	.
=144	=144	=144	=144	=144	=144	=144	=144
0A	-tu,	0c	in	1.e	in	1cc	-tu,
.	.	.	.	.	.	1a	.
.	.	.	.	2f\	.	.	.
1G	in	1d	.	1g	.	1b	in
=145	=145	=145	=145	=145	=145	=145	=145
0A	glo-	1A	glo-	1.c	glo-	0cc	glo-
.	.	0c	-ri-	.	.	.	.
.	.	.	.	2d\	.	.	.
1E	-ri-	.	.	1e	-ri-	1g	-ri-
=146	=146	=146	=146	=146	=146	=146	=146
1A	-a	1c	-a	1f	-a	1a	-a
1G	.	1d	de-	1g	de-	1.b	de-
1E	.	1e	-i	1G	-i	.	.
.	.	.	.	.	.	2a/	-i
=147	=147	=147	=147	=147	=147	=147	=147
1A	de-	1c	pa-	1A	pa-	1cc	pa-
1G	.	1.d	.	1B	.	1.b	.
[1F	.	.	.	1c	.	.	.
.	.	2c\	.	.	.	2a/	.
=148	=148	=148	=148	=148	=148	=148	=148
1F]	.	1A	.	1d	.	0a	.
0E	-i	0B	.	0e	-tris.	.	.
.	.	.	.	.	.	1g	.
=149	=149	=149	=149	=149	=149	=149	=149
1F	pa-	1A	.	0.r	.	1a	.
1G	.	1B	.	.	.	1d	.
1A	.	1c	.	.	.	1a	.
=150	=150	=150	=150	=150	=150	=150	=150
0E	-tris.	1B	.	1e	A-	1g	-tris.
.	.	1c	.	1g	.	1r	.
1F	A-	1A	.	1f	.	1a	A-
=151	=151	=151	=151	=151	=151	=151	=151
1G	.	1B	-tris.	1d	.	1g	.
1E	.	1r	.	1e	.	1.cc	.
1F	.	1A	A-	1c	.	.	.
.	.	.	.	.	.	2b\	.
=152	=152	=152	=152	=152	=152	=152	=152
1G	.	1B	.	1g	.	1b	.
1A	.	1c	.	1e	.	1.a	.
1D	.	1d	.	1f	.	.	.
.	.	.	.	.	.	2g/	.
=153	=153	=153	=153	=153	=153	=153	=153
0E	-men,	1B	.	0e	-men,	0g	-men,
.	.	1c	.	.	.	.	.
1F	a-	1A	.	1a	a-	1cc	a-
=154	=154	=154	=154	=154	=154	=154	=154
1G	.	1B	.	1g	.	1b	.
1A	.	1c	.	1e	.	1.a	.
1D	.	1d	.	1f	.	.	.
.	.	.	.	.	.	2g/	.
=155	=155	=155	=155	=155	=155	=155	=155
1E	.	1B	.	0e	.	1g	.
1.C	.	0c	.	.	.	0e	.
.	.	.	.	1c	.	.	.
2D\	.	.	.	.	.	.	.
=156	=156	=156	=156	=156	=156	=156	=156
1F	.	1A	.	1d	.	0a	.
0E	.	0B	.	0e	.	.	.
.	.	.	.	.	.	1g#i	.
=157	=157	=157	=157	=157	=157	=157	=157
0.AAl	-men.	0.Al	-men.	0.el	-men.	0.al	-men.
==	==	==	==	==	==	==	==
*-	*-	*-	*-	*-	*-	*-	*-
!!!RDF**kern: l=long note in original notation
!!!RDF**kern: i=editorial accidental
!!!ENC: Jesse Rodin 2011/04/11
!!!END: 2011/04/11/
!!!EED: Jesse Rodin
!!!EEV: 2012/05/25/
!!attribution-level@Jos: 1 (secure, core group [checkmark])
!!!ONB: Translated from MusicXML and edited on 2011/04/17/ by Craig Sapp
!!muse2ps: T^@{OPR}^u^@{ONM}{. }@{OTL}^C^@{COM}\n@{SCT}^i2I150v90,90,90,120c120z18l2700t130
